svg/relation_one_or_many_to_only_one.svg

<svg xmlns="http://www.w3.org/2000/svg" viewBox="0 0 24 24"><path d="M22 15v2h-1v2h-2v-2h-1v2h-2v-2h-5V9H7v2H5V9l-2 2H2V5h1l2 2V5h2v2h6v8h3v-2h2v2h1v-2h2v2Z"/></svg>

<?xml version="1.0" encoding="UTF-8"?><!DOCTYPE svg PUBLIC "-//W3C//DTD SVG 1.1//EN" "http://www.w3.org/Graphics/SVG/1.1/DTD/svg11.dtd"><svg xmlns="http://www.w3.org/2000/svg" xmlns:xlink="http://www.w3.org/1999/xlink" version="1.1" id="mdi-relation-one-or-many-to-only-one" width="24" height="24" viewBox="0 0 24 24"><path d="M22 15V17H21V19H19V17H18V19H16V17H11V9H7V11H5V9L3 11H2V5H3L5 7V5H7V7H13V15H16V13H18V15H19V13H21V15Z" /></svg>
